Newaita-dark/apps/16/kid3.svg

<?xml version="1.0" encoding="UTF-8"?>
<svg xmlns="http://www.w3.org/2000/svg" xmlns:xlink="http://www.w3.org/1999/xlink" width="16pt" height="16pt" viewBox="0 0 16 16" version="1.1">
<defs>
<radialGradient id="radial0" gradientUnits="userSpaceOnUse" cx="450.908936" cy="189.579361" fx="450.908936" fy="189.579361" r="21.166656" gradientTransform="matrix(0.0000000870852,-0.0390662,-0.0703192,-0.0000000507693,19.11935,31.797665)">
<stop offset="0" style="stop-color:rgb(0%,0%,0%);stop-opacity:0.313725;"/>
<stop offset="0.222222" style="stop-color:rgb(0%,0%,0%);stop-opacity:0.27451;"/>
<stop offset="1" style="stop-color:rgb(0%,0%,0%);stop-opacity:0;"/>
</radialGradient>
<radialGradient id="radial1" gradientUnits="userSpaceOnUse" cx="450.908936" cy="189.579361" fx="450.908936" fy="189.579361" r="21.166656" gradientTransform="matrix(-0.0000000870852,0.0390662,0.0703192,0.0000000507693,-9.527285,-3.763741)">
<stop offset="0" style="stop-color:rgb(0%,0%,0%);stop-opacity:0.313725;"/>
<stop offset="0.222222" style="stop-color:rgb(0%,0%,0%);stop-opacity:0.27451;"/>
<stop offset="1" style="stop-color:rgb(0%,0%,0%);stop-opacity:0;"/>
</radialGradient>
<radialGradient id="radial2" gradientUnits="userSpaceOnUse" cx="450.908936" cy="189.579361" fx="450.908936" fy="189.579361" r="21.166656" gradientTransform="matrix(-0.0000000870852,-0.0390662,0.0703192,-0.0000000507693,-9.527285,31.797665)">
<stop offset="0" style="stop-color:rgb(0%,0%,0%);stop-opacity:0.313725;"/>
<stop offset="0.222222" style="stop-color:rgb(0%,0%,0%);stop-opacity:0.27451;"/>
<stop offset="1" style="stop-color:rgb(0%,0%,0%);stop-opacity:0;"/>
</radialGradient>
<radialGradient id="radial3" gradientUnits="userSpaceOnUse" cx="450.908936" cy="189.579361" fx="450.908936" fy="189.579361" r="21.166656" gradientTransform="matrix(0.0000000870852,0.0390662,-0.0703192,0.0000000507693,19.119349,-3.763741)">
<stop offset="0" style="stop-color:rgb(0%,0%,0%);stop-opacity:0.313725;"/>
<stop offset="0.222222" style="stop-color:rgb(0%,0%,0%);stop-opacity:0.27451;"/>
<stop offset="1" style="stop-color:rgb(0%,0%,0%);stop-opacity:0;"/>
</radialGradient>
<linearGradient id="linear0" gradientUnits="userSpaceOnUse" x1="255.323059" y1="233.5" x2="255.323044" y2="254.666656" gradientTransform="matrix(0.00668003,0,0,0.031253,3.090467,6.719392)">
<stop offset="0" style="stop-color:rgb(0%,0%,0%);stop-opacity:0.27451;"/>
<stop offset="1" style="stop-color:rgb(0%,0%,0%);stop-opacity:0;"/>
</linearGradient>
<linearGradient id="linear1" gradientUnits="userSpaceOnUse" x1="1040" y1="1695.118164" x2="1040" y2="175.118134" gradientTransform="matrix(0.00826902,0,0,0.00826902,0,0)">
<stop offset="0" style="stop-color:rgb(12.941176%,58.823529%,95.294118%);stop-opacity:1;"/>
<stop offset="1" style="stop-color:rgb(39.215686%,70.980392%,96.470588%);stop-opacity:1;"/>
</linearGradient>
<linearGradient id="linear2" gradientUnits="userSpaceOnUse" x1="179.916672" y1="74.75" x2="179.916672" y2="-168.666656" gradientTransform="matrix(0.031253,0,0,0.031253,0,6.719391)">
<stop offset="0" style="stop-color:rgb(98.431373%,75.294118%,17.647059%);stop-opacity:1;"/>
<stop offset="1" style="stop-color:rgb(97.647059%,65.882353%,14.509804%);stop-opacity:1;"/>
</linearGradient>
<linearGradient id="linear3" gradientUnits="userSpaceOnUse" x1="680" y1="935.118103" x2="680" y2="555.118103" >
<stop offset="0" style="stop-color:rgb(74.117647%,74.117647%,74.117647%);stop-opacity:1;"/>
<stop offset="1" style="stop-color:rgb(87.843137%,87.843137%,87.843137%);stop-opacity:1;"/>
</linearGradient>
</defs>
<g id="surface1">
<path style=" stroke:none;fill-rule:nonzero;fill:url(#radial0);" d="M 5.953125 14.015625 L 7.277344 14.015625 L 7.277344 13.355469 L 5.953125 13.355469 Z M 5.953125 14.015625 "/>
<path style=" stroke:none;fill-rule:nonzero;fill:url(#radial1);" d="M 3.636719 14.015625 L 2.316406 14.015625 L 2.316406 14.679688 L 3.636719 14.679688 Z M 3.636719 14.015625 "/>
<path style=" stroke:none;fill-rule:nonzero;fill:url(#radial2);" d="M 3.636719 14.015625 L 2.316406 14.015625 L 2.316406 13.355469 L 3.636719 13.355469 Z M 3.636719 14.015625 "/>
<path style=" stroke:none;fill-rule:nonzero;fill:url(#radial3);" d="M 5.953125 14.015625 L 7.277344 14.015625 L 7.277344 14.679688 L 5.953125 14.679688 Z M 5.953125 14.015625 "/>
<path style=" stroke:none;fill-rule:nonzero;fill:url(#linear0);" d="M 3.636719 13.851562 L 5.953125 13.851562 L 5.953125 14.679688 L 3.636719 14.679688 Z M 3.636719 13.851562 "/>
<path style=" stroke:none;fill-rule:nonzero;fill:url(#linear1);" d="M 13.273438 1.40625 C 11.054688 1.972656 9.300781 2.316406 6.613281 3.058594 C 6.203125 3.144531 5.953125 3.398438 5.953125 3.761719 L 5.953125 10.3125 C 5.566406 10.144531 5.113281 10.046875 4.628906 10.046875 C 3.164062 10.046875 1.984375 10.933594 1.984375 12.03125 C 1.984375 13.132812 3.164062 14.015625 4.628906 14.015625 C 6.097656 14.015625 7.277344 13.132812 7.277344 12.03125 L 7.277344 4.257812 L 12.570312 2.9375 L 12.570312 8.988281 C 12.179688 8.820312 11.726562 8.726562 11.246094 8.726562 C 9.78125 8.726562 8.601562 9.609375 8.601562 10.710938 C 8.601562 11.808594 9.78125 12.695312 11.246094 12.695312 C 12.710938 12.695312 13.890625 11.808594 13.890625 10.710938 L 13.890625 2.109375 C 13.890625 1.742188 13.636719 1.40625 13.273438 1.40625 Z M 13.273438 1.40625 "/>
<path style=" stroke:none;fill-rule:nonzero;fill:rgb(100%,100%,100%);fill-opacity:0.392157;" d="M 13.273438 1.40625 C 11.054688 1.972656 9.300781 2.316406 6.613281 3.058594 C 6.203125 3.144531 5.953125 3.398438 5.953125 3.761719 L 5.953125 3.847656 C 5.953125 3.480469 6.203125 3.226562 6.613281 3.144531 C 9.300781 2.398438 11.054688 2.054688 13.273438 1.488281 C 13.636719 1.488281 13.890625 1.824219 13.890625 2.191406 L 13.890625 2.109375 C 13.890625 1.742188 13.636719 1.40625 13.273438 1.40625 Z M 11.246094 8.726562 C 9.78125 8.726562 8.601562 9.609375 8.601562 10.710938 C 8.601562 10.722656 8.601562 10.738281 8.601562 10.75 C 8.628906 9.671875 9.796875 8.808594 11.246094 8.808594 C 11.726562 8.808594 12.179688 8.902344 12.570312 9.070312 L 12.570312 8.988281 C 12.179688 8.820312 11.726562 8.726562 11.246094 8.726562 Z M 4.628906 10.046875 C 3.164062 10.046875 1.984375 10.933594 1.984375 12.03125 C 1.984375 12.046875 1.984375 12.058594 1.984375 12.074219 C 2.015625 10.992188 3.183594 10.128906 4.628906 10.128906 C 5.113281 10.128906 5.566406 10.226562 5.953125 10.394531 L 5.953125 10.3125 C 5.566406 10.144531 5.113281 10.046875 4.628906 10.046875 Z M 4.628906 10.046875 "/>
<path style=" stroke:none;fill-rule:nonzero;fill:rgb(0%,0%,0%);fill-opacity:0.235294;" d="M 12.570312 2.839844 L 7.277344 4.160156 L 7.277344 4.257812 L 12.570312 2.9375 Z M 13.890625 10.609375 C 13.890625 11.710938 12.710938 12.59375 11.246094 12.59375 C 9.800781 12.59375 8.636719 11.738281 8.601562 10.660156 C 8.601562 10.675781 8.601562 10.691406 8.601562 10.710938 C 8.601562 11.808594 9.78125 12.695312 11.246094 12.695312 C 12.710938 12.695312 13.890625 11.808594 13.890625 10.710938 Z M 7.277344 11.933594 C 7.277344 13.035156 6.097656 13.917969 4.628906 13.917969 C 3.1875 13.917969 2.019531 13.058594 1.984375 11.984375 C 1.984375 12 1.984375 12.015625 1.984375 12.03125 C 1.984375 13.132812 3.164062 14.015625 4.628906 14.015625 C 6.097656 14.015625 7.277344 13.132812 7.277344 12.03125 Z M 7.277344 11.933594 "/>
<path style=" stroke:none;fill-rule:nonzero;fill:rgb(12.941177%,12.941177%,12.941177%);fill-opacity:1;" d="M 13.273438 1.359375 L 13.261719 1.359375 C 11.042969 1.925781 9.292969 2.269531 6.601562 3.015625 C 6.390625 3.058594 6.214844 3.144531 6.09375 3.273438 C 5.972656 3.402344 5.90625 3.570312 5.90625 3.761719 L 5.90625 10.242188 C 5.527344 10.089844 5.09375 10 4.628906 10 C 3.886719 10 3.21875 10.226562 2.730469 10.589844 C 2.242188 10.957031 1.9375 11.464844 1.9375 12.03125 C 1.9375 12.597656 2.242188 13.109375 2.730469 13.472656 C 3.21875 13.839844 3.886719 14.0625 4.628906 14.0625 C 5.375 14.0625 6.042969 13.839844 6.53125 13.472656 C 7.019531 13.109375 7.324219 12.597656 7.324219 12.03125 L 7.324219 4.296875 L 12.523438 2.996094 L 12.523438 8.917969 C 12.140625 8.765625 11.707031 8.679688 11.246094 8.679688 C 10.503906 8.679688 9.832031 8.902344 9.34375 9.265625 C 8.859375 9.632812 8.554688 10.144531 8.554688 10.710938 C 8.554688 11.277344 8.859375 11.785156 9.34375 12.152344 C 9.832031 12.515625 10.503906 12.742188 11.246094 12.742188 C 11.988281 12.742188 12.660156 12.515625 13.148438 12.152344 C 13.632812 11.785156 13.9375 11.277344 13.9375 10.710938 L 13.9375 2.109375 C 13.9375 1.722656 13.667969 1.359375 13.273438 1.359375 Z M 13.277344 1.453125 C 13.613281 1.457031 13.84375 1.765625 13.84375 2.109375 L 13.84375 10.710938 C 13.84375 11.242188 13.558594 11.722656 13.089844 12.078125 C 12.621094 12.429688 11.96875 12.648438 11.246094 12.648438 C 10.523438 12.648438 9.871094 12.429688 9.402344 12.078125 C 8.933594 11.722656 8.648438 11.242188 8.648438 10.710938 C 8.648438 10.175781 8.933594 9.695312 9.402344 9.34375 C 9.871094 8.992188 10.523438 8.773438 11.246094 8.773438 C 11.722656 8.773438 12.167969 8.867188 12.550781 9.03125 L 12.617188 8.988281 L 12.617188 2.9375 L 12.558594 2.890625 L 7.265625 4.214844 L 7.230469 4.257812 L 7.230469 12.03125 C 7.230469 12.566406 6.945312 13.046875 6.476562 13.398438 C 6.007812 13.75 5.355469 13.96875 4.628906 13.96875 C 3.90625 13.96875 3.253906 13.75 2.785156 13.398438 C 2.316406 13.046875 2.03125 12.566406 2.03125 12.03125 C 2.03125 11.5 2.316406 11.015625 2.785156 10.664062 C 3.253906 10.3125 3.90625 10.09375 4.628906 10.09375 C 5.105469 10.09375 5.550781 10.191406 5.933594 10.355469 L 6 10.3125 L 6 3.761719 C 6 3.589844 6.058594 3.449219 6.164062 3.335938 C 6.269531 3.226562 6.425781 3.144531 6.625 3.105469 L 6.628906 3.105469 C 9.3125 2.363281 11.058594 2.019531 13.277344 1.453125 Z M 13.277344 1.453125 "/>
<path style=" stroke:none;fill-rule:nonzero;fill:url(#linear2);" d="M 3.96875 1.449219 C 3.601562 1.449219 3.308594 1.742188 3.308594 2.109375 L 3.308594 8.394531 C 3.308594 8.761719 3.601562 9.054688 3.96875 9.054688 L 7.277344 9.054688 C 7.644531 9.054688 7.9375 8.761719 7.9375 8.394531 L 7.9375 2.109375 C 7.9375 1.742188 7.644531 1.449219 7.277344 1.449219 Z M 5.621094 2.109375 C 5.964844 2.109375 6.253906 2.3125 6.382812 2.605469 L 6.78125 2.605469 C 6.964844 2.605469 7.113281 2.765625 7.113281 2.964844 L 7.113281 2.992188 C 7.113281 3.191406 6.964844 3.351562 6.78125 3.351562 L 6.339844 3.351562 C 6.199219 3.597656 5.929688 3.761719 5.621094 3.761719 C 5.316406 3.761719 5.046875 3.597656 4.90625 3.351562 L 4.464844 3.351562 C 4.28125 3.351562 4.132812 3.191406 4.132812 2.992188 L 4.132812 2.964844 C 4.132812 2.765625 4.28125 2.605469 4.464844 2.605469 L 4.863281 2.605469 C 4.992188 2.3125 5.28125 2.109375 5.621094 2.109375 Z M 5.621094 2.109375 "/>
<path style="fill-rule:nonzero;fill:url(#linear3);stroke-width:11.338583;stroke-linecap:square;stroke-linejoin:bevel;stroke:rgb(12.941177%,12.941177%,12.941177%);stroke-opacity:1;stroke-miterlimit:4;" d="M 679.77764 555.065133 C 646.70993 555.065133 619.783366 574.433364 619.783366 598.525552 L 619.783366 795.042229 L 559.789092 795.042229 L 669.857327 935.343799 C 675.053681 940.067758 684.973994 940.067758 690.170349 935.343799 L 799.766188 795.042229 L 739.771914 795.042229 L 739.771914 598.525552 C 739.771914 574.433364 713.317746 555.065133 679.77764 555.065133 Z M 679.77764 555.065133 " transform="matrix(0.00826902,0,0,0.00826902,0,0)"/>
<path style=" stroke:none;fill-rule:nonzero;fill:rgb(100%,100%,100%);fill-opacity:0.392157;" d="M 3.96875 1.449219 C 3.601562 1.449219 3.308594 1.742188 3.308594 2.109375 L 3.308594 2.273438 C 3.308594 1.910156 3.601562 1.613281 3.96875 1.613281 L 7.277344 1.613281 C 7.644531 1.613281 7.9375 1.910156 7.9375 2.273438 L 7.9375 2.109375 C 7.9375 1.742188 7.644531 1.449219 7.277344 1.449219 Z M 4.140625 3.058594 C 4.136719 3.082031 4.132812 3.105469 4.132812 3.128906 L 4.132812 3.15625 C 4.132812 3.355469 4.28125 3.515625 4.464844 3.515625 L 4.90625 3.515625 C 5.046875 3.761719 5.316406 3.929688 5.621094 3.929688 C 5.929688 3.929688 6.199219 3.761719 6.339844 3.515625 L 6.78125 3.515625 C 6.964844 3.515625 7.113281 3.355469 7.113281 3.15625 L 7.113281 3.128906 C 7.113281 3.105469 7.109375 3.082031 7.105469 3.058594 C 7.074219 3.226562 6.941406 3.351562 6.78125 3.351562 L 6.339844 3.351562 C 6.199219 3.597656 5.929688 3.761719 5.621094 3.761719 C 5.316406 3.761719 5.046875 3.597656 4.90625 3.351562 L 4.464844 3.351562 C 4.304688 3.351562 4.167969 3.226562 4.140625 3.058594 Z M 4.140625 3.058594 "/>
<path style=" stroke:none;fill-rule:nonzero;fill:rgb(0%,0%,0%);fill-opacity:0.235294;" d="M 5.621094 1.945312 C 5.28125 1.945312 4.992188 2.148438 4.863281 2.441406 L 4.464844 2.441406 C 4.28125 2.441406 4.132812 2.601562 4.132812 2.796875 L 4.132812 2.828125 C 4.132812 2.851562 4.136719 2.875 4.140625 2.894531 C 4.167969 2.730469 4.304688 2.605469 4.464844 2.605469 L 4.863281 2.605469 C 4.992188 2.3125 5.28125 2.109375 5.621094 2.109375 C 5.964844 2.109375 6.253906 2.3125 6.382812 2.605469 L 6.78125 2.605469 C 6.941406 2.605469 7.074219 2.730469 7.105469 2.894531 C 7.109375 2.875 7.113281 2.851562 7.113281 2.828125 L 7.113281 2.796875 C 7.113281 2.601562 6.964844 2.441406 6.78125 2.441406 L 6.382812 2.441406 C 6.253906 2.148438 5.964844 1.945312 5.621094 1.945312 Z M 3.308594 8.230469 L 3.308594 8.394531 C 3.308594 8.761719 3.601562 9.054688 3.96875 9.054688 L 7.277344 9.054688 C 7.644531 9.054688 7.9375 8.761719 7.9375 8.394531 L 7.9375 8.230469 C 7.9375 8.59375 7.644531 8.890625 7.277344 8.890625 L 3.96875 8.890625 C 3.601562 8.890625 3.308594 8.59375 3.308594 8.230469 Z M 3.308594 8.230469 "/>
<path style=" stroke:none;fill-rule:nonzero;fill:rgb(12.941177%,12.941177%,12.941177%);fill-opacity:1;" d="M 3.96875 1.402344 C 3.578125 1.402344 3.261719 1.71875 3.261719 2.109375 L 3.261719 8.394531 C 3.261719 8.785156 3.578125 9.101562 3.96875 9.101562 L 7.277344 9.101562 C 7.667969 9.101562 7.984375 8.785156 7.984375 8.394531 L 7.984375 2.109375 C 7.984375 1.71875 7.667969 1.402344 7.277344 1.402344 Z M 3.96875 1.496094 L 7.277344 1.496094 C 7.617188 1.496094 7.890625 1.769531 7.890625 2.109375 L 7.890625 8.394531 C 7.890625 8.734375 7.617188 9.007812 7.277344 9.007812 L 3.96875 9.007812 C 3.628906 9.007812 3.355469 8.734375 3.355469 8.394531 L 3.355469 2.109375 C 3.355469 1.769531 3.628906 1.496094 3.96875 1.496094 Z M 5.621094 2.0625 C 5.273438 2.0625 4.976562 2.265625 4.835938 2.558594 L 4.464844 2.558594 C 4.253906 2.558594 4.085938 2.742188 4.085938 2.964844 L 4.085938 2.992188 C 4.085938 3.214844 4.253906 3.398438 4.464844 3.398438 L 4.882812 3.398438 C 5.035156 3.644531 5.308594 3.808594 5.621094 3.808594 C 5.9375 3.808594 6.210938 3.644531 6.363281 3.398438 L 6.78125 3.398438 C 6.992188 3.398438 7.160156 3.214844 7.160156 2.992188 L 7.160156 2.964844 C 7.160156 2.742188 6.992188 2.558594 6.78125 2.558594 L 6.410156 2.558594 C 6.269531 2.265625 5.972656 2.0625 5.621094 2.0625 Z M 5.621094 2.15625 C 5.945312 2.15625 6.21875 2.347656 6.339844 2.625 L 6.382812 2.652344 L 6.78125 2.652344 C 6.9375 2.652344 7.066406 2.789062 7.066406 2.964844 L 7.066406 2.992188 C 7.066406 3.167969 6.9375 3.304688 6.78125 3.304688 L 6.339844 3.304688 L 6.300781 3.328125 C 6.164062 3.558594 5.914062 3.714844 5.621094 3.714844 C 5.332031 3.714844 5.082031 3.558594 4.945312 3.328125 L 4.90625 3.304688 L 4.464844 3.304688 C 4.308594 3.304688 4.179688 3.167969 4.179688 2.992188 L 4.179688 2.964844 C 4.179688 2.789062 4.308594 2.652344 4.464844 2.652344 L 4.863281 2.652344 L 4.90625 2.625 C 5.027344 2.347656 5.300781 2.15625 5.621094 2.15625 Z M 5.621094 2.15625 "/>
</g>
</svg>

<svg xmlns="http://www.w3.org/2000/svg" width="16pt" height="16pt" viewBox="0 0 16 16"><defs><radialGradient id="a" gradientUnits="userSpaceOnUse" cx="450.909" cy="189.579" fx="450.909" fy="189.579" r="21.167" gradientTransform="matrix(0 -.03907 -.07032 0 19.12 31.798)"><stop offset="0" stop-opacity=".314"/><stop offset=".222" stop-opacity=".275"/><stop offset="1" stop-opacity="0"/></radialGradient><radialGradient id="b" gradientUnits="userSpaceOnUse" cx="450.909" cy="189.579" fx="450.909" fy="189.579" r="21.167" gradientTransform="matrix(0 .03907 .07032 0 -9.527 -3.764)"><stop offset="0" stop-opacity=".314"/><stop offset=".222" stop-opacity=".275"/><stop offset="1" stop-opacity="0"/></radialGradient><radialGradient id="c" gradientUnits="userSpaceOnUse" cx="450.909" cy="189.579" fx="450.909" fy="189.579" r="21.167" gradientTransform="matrix(0 -.03907 .07032 0 -9.527 31.798)"><stop offset="0" stop-opacity=".314"/><stop offset=".222" stop-opacity=".275"/><stop offset="1" stop-opacity="0"/></radialGradient><radialGradient id="d" gradientUnits="userSpaceOnUse" cx="450.909" cy="189.579" fx="450.909" fy="189.579" r="21.167" gradientTransform="matrix(0 .03907 -.07032 0 19.12 -3.764)"><stop offset="0" stop-opacity=".314"/><stop offset=".222" stop-opacity=".275"/><stop offset="1" stop-opacity="0"/></radialGradient><linearGradient id="e" gradientUnits="userSpaceOnUse" x1="255.323" y1="233.5" x2="255.323" y2="254.667" gradientTransform="matrix(.00668 0 0 .03125 3.09 6.72)"><stop offset="0" stop-opacity=".275"/><stop offset="1" stop-opacity="0"/></linearGradient><linearGradient id="f" gradientUnits="userSpaceOnUse" x1="1040" y1="1695.118" x2="1040" y2="175.118" gradientTransform="rotate(.882) scale(.00827)"><stop offset="0" stop-color="#2196f3"/><stop offset="1" stop-color="#64b5f6"/></linearGradient><linearGradient id="g" gradientUnits="userSpaceOnUse" x1="179.917" y1="74.75" x2="179.917" y2="-168.667" gradientTransform="matrix(.03125 0 0 .03125 0 6.72)"><stop offset="0" stop-color="#fbc02d"/><stop offset="1" stop-color="#f9a825"/></linearGradient><linearGradient id="h" gradientUnits="userSpaceOnUse" x1="680" y1="935.118" x2="680" y2="555.118"><stop offset="0" stop-color="#bdbdbd"/><stop offset="1" stop-color="#e0e0e0"/></linearGradient></defs><path d="M5.953 14.016h1.324v-.66H5.953zm0 0" fill="url(#a)"/><path d="M3.637 14.016h-1.32v.664h1.32zm0 0" fill="url(#b)"/><path d="M3.637 14.016h-1.32v-.66h1.32zm0 0" fill="url(#c)"/><path d="M5.953 14.016h1.324v.664H5.953zm0 0" fill="url(#d)"/><path d="M3.637 13.852h2.316v.828H3.637zm0 0" fill="url(#e)"/><path d="M13.273 1.406c-2.218.567-3.972.91-6.66 1.653-.41.086-.66.34-.66.703v6.55a3.337 3.337 0 0 0-1.324-.265c-1.465 0-2.645.887-2.645 1.984 0 1.102 1.18 1.985 2.645 1.985 1.469 0 2.648-.883 2.648-1.985V4.258l5.293-1.32v6.05a3.364 3.364 0 0 0-1.324-.261c-1.465 0-2.644.882-2.644 1.984 0 1.098 1.18 1.984 2.644 1.984 1.465 0 2.645-.886 2.645-1.984V2.109c0-.367-.254-.703-.618-.703zm0 0" fill="url(#f)"/><path d="M13.273 1.406c-2.218.567-3.972.91-6.66 1.653-.41.086-.66.34-.66.703v.086c0-.368.25-.621.66-.703 2.688-.747 4.442-1.09 6.66-1.657.364 0 .618.336.618.703V2.11c0-.367-.254-.703-.618-.703zm-2.027 7.32c-1.465 0-2.644.883-2.644 1.985v.039c.027-1.078 1.195-1.941 2.644-1.941.48 0 .934.093 1.324.261v-.082a3.364 3.364 0 0 0-1.324-.261zm-6.617 1.32c-1.465 0-2.645.888-2.645 1.985v.043c.032-1.082 1.2-1.945 2.645-1.945.484 0 .937.098 1.324.266v-.082a3.337 3.337 0 0 0-1.324-.266zm0 0" fill="#fff" fill-opacity=".392"/><path d="M12.57 2.84L7.277 4.16v.098l5.293-1.32zm1.32 7.77c0 1.1-1.18 1.984-2.644 1.984-1.445 0-2.61-.856-2.644-1.934v.05c0 1.099 1.18 1.985 2.644 1.985 1.465 0 2.645-.886 2.645-1.984zm-6.613 1.324c0 1.101-1.18 1.984-2.648 1.984-1.441 0-2.61-.86-2.645-1.934v.047c0 1.102 1.18 1.985 2.645 1.985 1.469 0 2.648-.883 2.648-1.985zm0 0" fill-opacity=".235"/><path d="M13.273 1.36h-.011c-2.219.566-3.969.91-6.66 1.656a.941.941 0 0 0-.508.257.698.698 0 0 0-.188.489v6.48A3.428 3.428 0 0 0 4.63 10c-.742 0-1.41.227-1.899.59-.488.367-.792.875-.792 1.441 0 .567.304 1.078.792 1.442.489.367 1.157.59 1.899.59.746 0 1.414-.223 1.902-.59.489-.364.793-.875.793-1.442V4.297l5.2-1.3v5.921a3.458 3.458 0 0 0-1.278-.238c-.742 0-1.414.222-1.902.586-.485.367-.79.879-.79 1.445 0 .566.305 1.074.79 1.441.488.364 1.16.59 1.902.59s1.414-.226 1.902-.59c.485-.367.79-.875.79-1.441V2.109c0-.386-.27-.75-.665-.75zm.004.093c.336.004.567.313.567.656v8.602c0 .531-.285 1.012-.754 1.367-.469.352-1.121.57-1.844.57-.723 0-1.375-.218-1.844-.57-.468-.355-.754-.836-.754-1.367 0-.535.286-1.016.754-1.367.47-.352 1.121-.57 1.844-.57.477 0 .922.093 1.305.257l.066-.043v-6.05l-.058-.047-5.293 1.324-.036.043v7.773c0 .535-.285 1.016-.753 1.367-.47.352-1.122.57-1.848.57-.723 0-1.375-.218-1.844-.57-.469-.351-.754-.832-.754-1.367 0-.531.285-1.015.754-1.367.469-.351 1.121-.57 1.844-.57.476 0 .922.097 1.305.261L6 10.312v-6.55c0-.172.059-.313.164-.426a.86.86 0 0 1 .461-.23h.004c2.684-.743 4.43-1.086 6.648-1.653zm0 0" fill="#212121"/><path d="M3.969 1.45a.657.657 0 0 0-.66.66v6.285c0 .367.293.66.66.66h3.308c.368 0 .66-.293.66-.66V2.109a.657.657 0 0 0-.66-.66zm1.652.66c.344 0 .633.203.762.495h.398c.184 0 .332.16.332.36v.027c0 .2-.148.36-.332.36H6.34a.824.824 0 0 1-.719.41.822.822 0 0 1-.715-.41h-.441c-.184 0-.332-.16-.332-.36v-.027c0-.2.148-.36.332-.36h.398a.826.826 0 0 1 .758-.496zm0 0" fill="url(#g)"/><path d="M679.778 555.065c-33.068 0-59.995 19.368-59.995 43.46v196.517H559.79l110.068 140.302c5.197 4.724 15.117 4.724 20.313 0l109.596-140.302h-59.994V598.526c0-24.093-26.454-43.46-59.994-43.46zm0 0" transform="rotate(.882) scale(.00827)" fill="url(#h)" stroke-width="11.339" stroke-linecap="square" stroke-linejoin="bevel" stroke="#212121"/><path d="M3.969 1.45a.657.657 0 0 0-.66.66v.163a.66.66 0 0 1 .66-.66h3.308a.66.66 0 0 1 .66.66V2.11a.657.657 0 0 0-.66-.66zm.172 1.609c-.004.023-.008.046-.008.07v.027c0 .2.148.36.332.36h.441a.826.826 0 0 0 1.434 0h.441c.184 0 .332-.16.332-.36V3.13a.43.43 0 0 0-.008-.07c-.03.168-.164.293-.324.293H6.34a.824.824 0 0 1-.719.41.822.822 0 0 1-.715-.41h-.441a.338.338 0 0 1-.324-.293zm0 0" fill="#fff" fill-opacity=".392"/><path d="M5.621 1.945a.826.826 0 0 0-.758.496h-.398c-.184 0-.332.16-.332.356v.031c0 .024.004.047.008.067a.338.338 0 0 1 .324-.29h.398a.826.826 0 0 1 .758-.496c.344 0 .633.204.762.496h.398c.16 0 .293.125.324.29a.344.344 0 0 0 .008-.067v-.031c0-.195-.148-.356-.332-.356h-.398a.827.827 0 0 0-.762-.496zM3.31 8.23v.165c0 .367.293.66.66.66h3.308c.368 0 .66-.293.66-.66V8.23a.66.66 0 0 1-.66.66H3.97a.66.66 0 0 1-.66-.66zm0 0" fill-opacity=".235"/><path d="M3.969 1.402a.707.707 0 0 0-.707.707v6.286c0 .39.316.707.707.707h3.308c.391 0 .707-.317.707-.707V2.109a.707.707 0 0 0-.707-.707zm0 .094h3.308c.34 0 .614.274.614.613v6.286c0 .34-.274.613-.614.613H3.97a.612.612 0 0 1-.614-.613V2.109c0-.34.274-.613.614-.613zm1.652.567a.87.87 0 0 0-.785.496h-.371c-.211 0-.38.183-.38.406v.027c0 .223.169.406.38.406h.418c.152.247.426.41.738.41.316 0 .59-.163.742-.41h.418c.211 0 .38-.183.38-.406v-.027c0-.223-.169-.406-.38-.406h-.37a.871.871 0 0 0-.79-.497zm0 .093a.78.78 0 0 1 .719.469l.043.027h.398c.157 0 .285.137.285.313v.027c0 .176-.128.313-.285.313H6.34l-.04.023a.786.786 0 0 1-1.355 0l-.039-.023h-.441c-.156 0-.285-.137-.285-.313v-.027c0-.176.129-.313.285-.313h.398l.043-.027a.778.778 0 0 1 .715-.469zm0 0" fill="#212121"/></svg>
